Hatter-kde/actions/24/view-media-playlist.svg

<svg xmlns="http://www.w3.org/2000/svg" viewBox="0 0 24 24">
  <defs id="defs3051">
    <style type="text/css" id="current-color-scheme">
      .ColorScheme-Text {
        color:#363636;
      }
      </style>
  </defs>
 <path style="fill:currentColor;fill-opacity:1;stroke:none" 
     d="M 5.5 4 C 4.671579 4 4.000008 4.67157 4 5.5 C 4.000008 6.32843 4.671579 7 5.5 7 C 6.328421 7 6.999992 6.32843 7 5.5 C 6.999992 4.67157 6.328421 4 5.5 4 z M 8 5 L 8 6 L 9 6 L 9 5 L 8 5 z M 10 5 L 10 6 L 20 6 L 20 5 L 10 5 z M 10 7 L 10 8 L 13 8 L 13 7 L 10 7 z M 5.5 10 C 4.671573 9.9999999 4 10.671572 4 11.5 C 4 12.328428 4.671573 13.000001 5.5 13 C 6.328427 13 7 12.328428 7 11.5 C 7 10.671572 6.328427 9.999999 5.5 10 z M 8 11 L 8 12 L 9 12 L 9 11 L 8 11 z M 10 11 L 10 12 L 20 12 L 20 11 L 10 11 z M 10 13 L 10 14 L 14 14 L 14 13 L 10 13 z M 5.5 16 C 4.671573 16 4 16.671572 4 17.5 C 4 18.328428 4.671573 19.000001 5.5 19 C 6.328427 19 7 18.328428 7 17.5 C 7 16.671572 6.328427 15.999999 5.5 16 z M 8 17 L 8 18 L 9 18 L 9 17 L 8 17 z M 10 17 L 10 18 L 20 18 L 20 17 L 10 17 z M 10 19 L 10 20 L 17 20 L 17 19 L 10 19 z "
     class="ColorScheme-Text"
     />
</svg>

<?xml version="1.0" encoding="UTF-8"?>
<svg viewBox="0 0 24 24" xmlns="http://www.w3.org/2000/svg">
 <defs id="defs3051">
  <style id="current-color-scheme" type="text/css">.ColorScheme-Text {
        color:#363636;
      }</style>
 </defs>
 <path class="ColorScheme-Text" d="m5.5 4c-0.82842 0-1.5 0.67157-1.5 1.5 8e-6 0.82843 0.67158 1.5 1.5 1.5s1.5-0.67157 1.5-1.5c-8e-6 -0.82843-0.67158-1.5-1.5-1.5zm2.5 1v1h1v-1h-1zm2 0v1h10v-1h-10zm0 2v1h3v-1h-3zm-4.5 3c-0.82843-1e-7 -1.5 0.67157-1.5 1.5s0.67157 1.5 1.5 1.5c0.82843 0 1.5-0.67157 1.5-1.5s-0.67157-1.5-1.5-1.5zm2.5 1v1h1v-1h-1zm2 0v1h10v-1h-10zm0 2v1h4v-1h-4zm-4.5 3c-0.82843 0-1.5 0.67157-1.5 1.5s0.67157 1.5 1.5 1.5c0.82843 0 1.5-0.67157 1.5-1.5s-0.67157-1.5-1.5-1.5zm2.5 1v1h1v-1h-1zm2 0v1h10v-1h-10zm0 2v1h7v-1h-7z" fill="currentColor"/>
</svg>
